X: 1
T: Boy On The Mountain Top, The
M: 4/4
L: 1/8
R: reel
K: Ador
A2 Ac B2 AG | EGGF G2 AG | EA ~A2 BGBd |egdB BAGB | 
AGAc BGAG | EGGF G2 AB |c2 ec B2 GB | dBGA BAGB ||
A2 Bd egdB | GBd^c defg | agfd egdB | GBdB BA A2 |
~a2 fd egdB | GBd^c defg | afge fdef |g2 ag gedB ||
